packages/elements/bolt-icon/src/svgs/print.svg

<svg enable-background="new 0 0 32 32" viewBox="0 0 32 32" xmlns="http://www.w3.org/2000/svg"><path clip-rule="evenodd" d="m29.1 21.8c0 .8-.7 1.5-1.5 1.5h-1.5v-4.4c0-.8-.7-1.5-1.5-1.5h-17.3c-.8 0-1.5.7-1.5 1.5v4.4h-1.4c-.8 0-1.5-.7-1.5-1.5v-7.3c0-.8.7-1.5 1.5-1.5h23.3c.8 0 1.5.7 1.5 1.5v7.3zm-20.4 7.3h14.5v-8.7h-14.5zm0-18.9h14.5v-7.3h-14.5zm18.9 0h-1.5v-8.7c0-.8-.7-1.5-1.5-1.5h-17.3c-.8 0-1.5.7-1.5 1.5v8.7h-1.4c-2.4 0-4.4 2-4.4 4.4v7.3c0 2.4 2 4.4 4.4 4.4h1.5v4.4c0 .8.7 1.5 1.5 1.5h17.5c.8 0 1.5-.7 1.5-1.5v-4.4h1.5c2.4 0 4.4-2 4.4-4.4v-7.3c-.3-2.5-2.3-4.4-4.7-4.4z" fill="#151619" fill-rule="evenodd"/></svg>

<?xml version="1.0" encoding="utf-8"?>
<!-- Generator: Adobe Illustrator 25.2.0, SVG Export Plug-In . SVG Version: 6.00 Build 0)  -->
<svg version="1.1" id="Layer_1" xmlns="http://www.w3.org/2000/svg" xmlns:xlink="http://www.w3.org/1999/xlink" x="0px" y="0px"
	 viewBox="0 0 32 32" style="enable-background:new 0 0 32 32;" xml:space="preserve">
<style type="text/css">
	.st0{fill-rule:evenodd;clip-rule:evenodd;fill:#151619;}
</style>
<g>
	<path class="st0" d="M29.1,21.8c0,0.8-0.7,1.5-1.5,1.5h-1.5v-4.4c0-0.8-0.7-1.5-1.5-1.5H7.3c-0.8,0-1.5,0.7-1.5,1.5v4.4H4.4
		c-0.8,0-1.5-0.7-1.5-1.5v-7.3c0-0.8,0.7-1.5,1.5-1.5h23.3c0.8,0,1.5,0.7,1.5,1.5V21.8z M8.7,29.1h14.5v-8.7H8.7V29.1z M8.7,10.2
		h14.5V2.9H8.7V10.2z M27.6,10.2h-1.5V1.5c0-0.8-0.7-1.5-1.5-1.5H7.3C6.5,0,5.8,0.7,5.8,1.5v8.7H4.4c-2.4,0-4.4,2-4.4,4.4v7.3
		c0,2.4,2,4.4,4.4,4.4h1.5v4.4c0,0.8,0.7,1.5,1.5,1.5h17.5c0.8,0,1.5-0.7,1.5-1.5v-4.4h1.5c2.4,0,4.4-2,4.4-4.4v-7.3
		C32,12.1,30,10.2,27.6,10.2z"/>
</g>
</svg>
